pro/src/icons/stroke-institution.svg

<svg width="48" height="48" viewBox="0 0 48 48" xmlns="http://www.w3.org/2000/svg">
<path fill-rule="evenodd" clip-rule="evenodd" id="icon" d="M 25.8365 0.497 C 24.697 -0.1618 23.3029 -0.1618 22.1633 0.497 L 22.1583 0.5 L 1.8193 12.3914 C -1.3941 14.2659 -0.0783 19.1999 3.6599 19.1999 H 6.0755 C 6.0267 19.3306 6 19.4722 6 19.6199 V 39.6 H 4.8 C 2.8173 39.6 1.2 41.2171 1.2 43.2 V 44.4 C 1.2 46.3826 2.8173 48 4.8 48 H 43.2 C 45.1826 48 46.8 46.3826 46.8 44.4 V 43.2 C 46.8 41.2171 45.1826 39.6 43.2 39.6 H 42 V 19.1999 H 44.34 C 48.0576 19.1999 49.4014 14.2703 46.1806 12.3914 L 25.8415 0.5 L 25.8365 0.497 Z M 39.6 39.6 V 18.4199 C 39.6 18.2758 39.6254 18.1376 39.672 18.0096 L 39.672 17.9999 C 39.672 17.3372 40.2091 16.7999 40.872 16.7999 H 44.34 C 45.6144 16.7999 46.0704 15.1056 44.9712 14.4645 L 24.6353 2.5748 L 24.6331 2.5736 C 24.2378 2.346 23.7619 2.346 23.3667 2.5736 L 23.3645 2.5748 L 3.0296 14.4639 C 1.923 15.1094 2.3822 16.7999 3.6599 16.7999 H 36 C 36.6626 16.7999 37.2 17.3372 37.2 17.9999 C 37.2 18.6627 36.6626 19.1999 36 19.1999 H 8.3244 C 8.3733 19.3306 8.4 19.4722 8.4 19.6199 V 40.8 C 8.4 40.8 8.4 40.8 8.4 40.8 C 8.4 41.0484 8.3244 41.2793 8.1951 41.4708 C 7.9794 41.79 7.6142 42 7.2 42 H 4.8 C 4.1427 42 3.6 42.5426 3.6 43.2 V 44.4 C 3.6 45.0571 4.1427 45.6 4.8 45.6 H 43.2 C 43.8574 45.6 44.4 45.0571 44.4 44.4 V 43.2 C 44.4 42.5426 43.8574 42 43.2 42 H 32.4 H 12.66 C 11.9973 42 11.46 41.4626 11.46 40.8 C 11.46 40.1371 11.9973 39.6 12.66 39.6 H 14.4 V 23.2199 C 14.4 22.5572 14.9373 22.0199 15.6 22.0199 C 16.2627 22.0199 16.8 22.5572 16.8 23.2199 V 39.6 H 22.8 V 22.0199 C 22.8 21.3572 23.3373 20.8199 24 20.8199 C 24.6626 20.8199 25.2 21.3572 25.2 22.0199 V 39.6 H 31.2 V 23.9999 C 31.2 23.3372 31.7374 22.7999 32.4 22.7999 C 33.0626 22.7999 33.6 23.3372 33.6 23.9999 V 39.6 H 39.6 Z M 24 11.3999 C 24.9941 11.3999 25.8 10.594 25.8 9.5999 C 25.8 8.6058 24.9941 7.7999 24 7.7999 C 23.0059 7.7999 22.2 8.6058 22.2 9.5999 C 22.2 10.594 23.0059 11.3999 24 11.3999 Z" fill="currentColor"/>
</svg>

<svg xmlns="http://www.w3.org/2000/svg" width="48" height="48"><path id="icon" fill="currentColor" fill-rule="evenodd" d="M25.837.497a3.66 3.66 0 0 0-3.674 0L22.158.5 1.82 12.391C-1.394 14.266-.078 19.2 3.66 19.2h2.417Q6 19.397 6 19.62V39.6H4.8a3.607 3.607 0 0 0-3.6 3.6v1.2c0 1.983 1.617 3.6 3.6 3.6h38.4c1.983 0 3.6-1.617 3.6-3.6v-1.2c0-1.983-1.617-3.6-3.6-3.6H42V19.2h2.34c3.718 0 5.061-4.93 1.84-6.809L25.843.5zM39.6 39.6V18.42q0-.217.072-.41V18a1.2 1.2 0 0 1 1.2-1.2h3.468c1.274 0 1.73-1.694.631-2.336L24.635 2.574h-.002a1.26 1.26 0 0 0-1.266 0h-.003L3.03 14.465c-1.107.645-.648 2.336.63 2.336H36a1.2 1.2 0 0 1 0 2.4H8.324q.076.197.076.42V40.8A1.2 1.2 0 0 1 7.2 42H4.8c-.657 0-1.2.543-1.2 1.2v1.2c0 .657.543 1.2 1.2 1.2h38.4c.657 0 1.2-.543 1.2-1.2v-1.2c0-.657-.543-1.2-1.2-1.2H12.66a1.2 1.2 0 0 1 0-2.4h1.74V23.22a1.2 1.2 0 0 1 2.4 0V39.6h6V22.02a1.2 1.2 0 0 1 2.4 0V39.6h6V24a1.2 1.2 0 0 1 2.4 0v15.6zM24 11.4a1.8 1.8 0 1 0 0-3.6 1.8 1.8 0 0 0 0 3.6" clip-rule="evenodd"/></svg>
